!!!!SEGMENT: Ver2018-Sancta_Maria_virgo_virginum.krn
!!!id: Ver2018
!!!AGN: Motet
!!!SCT: Slim (1972)
!!!voices: 6
!!!COM: Philippe Verdelot
!!!OTL: Sancta Maria, virgo virginum
**kern	**kern	**kern	**kern	**kern	**kern
*part6	*part5	*part4	*part3	*part2	*part1
*staff6	*staff5	*staff4	*staff3	*staff2	*staff1
*I"Bassus II	*I"Bassus I	*I"Tenor	*I"Altus II	*I"Altus I	*I"Superius
*I'B. II	*I'B. I	*I'T	*I'A. II	*I'A. I	*I'S
*clefF4	*clefF4	*clefGv2	*clefGv2	*clefGv2	*clefG2
*k[b-]	*k[b-]	*k[b-]	*k[b-]	*k[b-]	*k[b-]
*F:	*F:	*F:	*F:	*F:	*F:
*M2/1	*M2/1	*M2/1	*M2/1	*M2/1	*M2/1
*met(C|)	*met(C|)	*met(C|)	*met(C|)	*met(C|)	*met(C|)
!!section: Prima pars: Sancta Maria, virgo virginum
!!!OMD: Prima pars: Sancta Maria, virgo virginum
=1	=1	=1	=1	=1	=1
0r	0r	0r	0r	0g	1r
.	.	.	.	.	[1dd
=2	=2	=2	=2	=2	=2
0r	0r	0r	0r	1d	1dd]
.	.	.	.	1f	1a
=3	=3	=3	=3	=3	=3
0r	0r	0r	0r	1e	1cc
.	.	.	.	1d	1b-y
=4	=4	=4	=4	=4	=4
0r	0r	0d	0r	2r	1a
.	.	.	.	2d	.
.	.	.	.	1f	2r
.	.	.	.	.	2a
=5	=5	=5	=5	=5	=5
0r	0r	1A	0r	2.c	1cc
.	.	.	.	4d	.
.	.	1c	.	4e	2.g
.	.	.	.	4f	.
.	.	.	.	[2g	.
.	.	.	.	.	4a
=6	=6	=6	=6	=6	=6
0r	0r	1B-y	0r	4g]	4b-y
.	.	.	.	4f	4cc
.	.	.	.	4e	2.dd
.	.	.	.	4d	.
.	.	1A	.	2e	.
.	.	.	.	.	4cc#i
.	.	.	.	2e	4cc#i
.	.	.	.	.	8bniL
.	.	.	.	.	8cc#iJ
=7	=7	=7	=7	=7	=7
0r	0G	2r	1r	1d	0dd
.	.	2G	.	.	.
.	.	1B-y	[1d	2r	.
.	.	.	.	2d	.
=8	=8	=8	=8	=8	=8
0r	1D	2.F	1d]	1f	0r
.	.	4G	.	.	.
.	1F	4A	1A	2.c	.
.	.	4B-y	.	.	.
.	.	[2c	.	.	.
.	.	.	.	4d	.
=9	=9	=9	=9	=9	=9
0r	1E	4c]	1c	4e	0r
.	.	4d	.	4f	.
.	.	4e	.	1g	.
.	.	4c	.	.	.
.	1D	[1d	1B-y	.	.
.	.	.	.	4f	.
.	.	.	.	4e	.
=10	=10	=10	=10	=10	=10
0D	2r	2d]	1A	0f	0r
.	2D	4c	.	.	.
.	.	4B-y	.	.	.
.	1F	2A	2r	.	.
.	.	4F	2A	.	.
.	.	4G	.	.	.
=11	=11	=11	=11	=11	=11
1AA	2.C	4A	1c	0r	0r
.	.	4B-y	.	.	.
.	.	1c	.	.	.
.	4D	.	.	.	.
1C	4E	.	2.G	.	.
.	4F	.	.	.	.
.	[2G	2C	.	.	.
.	.	.	4A	.	.
=12	=12	=12	=12	=12	=12
1BB-y	4G]	4D	4B-y	0r	0r
.	4F	4E	4c	.	.
.	4E	4F	2.d	.	.
.	4D	4G	.	.	.
1AA	2E	[1A	.	.	.
.	.	.	4c#i	.	.
.	2E	.	4c#i	.	.
.	.	.	8BniL	.	.
.	.	.	8c#iJ	.	.
=13	=13	=13	=13	=13	=13
2r	0D	1A]	0d	0r	0r
2D	.	.	.	.	.
1F	.	2r	.	.	.
.	.	2A	.	.	.
=14	=14	=14	=14	=14	=14
2.C	0r	1c	0r	1r	0r
4D	.	.	.	.	.
4E	.	2G	.	2r	.
4F	.	.	.	.	.
[2G	.	[2B-y	.	2d	.
=15	=15	=15	=15	=15	=15
4G]	0r	4B-]	0r	2d	2r
4F	.	4A	.	.	.
4E	.	4G	.	2d	2g
4D	.	4F	.	.	.
2E	.	1G	.	2c	2g
2E	.	.	.	2c	2g
=16	=16	=16	=16	=16	=16
1D	0r	1A	0r	2d	2f
.	.	.	.	2f	2f
1r	.	1r	.	2e	2g
.	.	.	.	[2d	2a
=17	=17	=17	=17	=17	=17
0r	0r	0r	1d	4d]	2f
.	.	.	.	4c	.
.	.	.	.	4B-y	2.g
.	.	.	.	4A	.
.	.	.	2d	1B-y	.
.	.	.	.	.	4f
.	.	.	2d	.	4e
.	.	.	.	.	4d
=18	=18	=18	=18	=18	=18
0r	0r	0r	2c	1A	2e
.	.	.	2c	.	2.a
.	.	.	2d	2r	.
.	.	.	.	.	4g
.	.	.	2f	2d	4a
.	.	.	.	.	4f
=19	=19	=19	=19	=19	=19
0r	1r	0r	2e	2e	4g
.	.	.	.	.	4a
.	.	.	2.d	2f	2.b-y
.	1G	.	.	1g	.
.	.	.	4c	.	4a
.	.	.	4B-y	.	4g
.	.	.	4A	.	4f
=20	=20	=20	=20	=20	=20
0r	2G	1d	1B-y	0r	4g
.	.	.	.	.	4a
.	2G	.	.	.	4b-y
.	.	.	.	.	4g
.	2F	2d	2A	.	2a
.	2G	2d	2B-y	.	4g
.	.	.	.	.	4f
=21	=21	=21	=21	=21	=21
0r	1A	2c	2c	0r	1e
.	.	2c	1A	.	.
.	2F	2.d	.	.	1d
.	[2G	.	[2d	.	.
.	.	4c	.	.	.
=22	=22	=22	=22	=22	=22
1G	4G]	4B-y	2d]	0r	0r
.	4F	4A	.	.	.
.	4E	4G	4c#i	.	.
.	4D	4F	4Bni	.	.
2G	2E	1G	1c#i	.	.
2G	2E	.	.	.	.
=23	=23	=23	=23	=23	=23
2F	1D	1A	1d	0r	0r
2F	.	.	.	.	.
2G	1r	2B-y	2e	.	.
2A	.	2c	[2f	.	.
=24	=24	=24	=24	=24	=24
2F	0r	2A	4f]	1r	0r
.	.	.	4e	.	.
2.G	.	2.B-y	1d	.	.
.	.	.	.	[1g	.
4F	.	4A	.	.	.
4E	.	4G	4c	.	.
4D	.	4F	4B-y	.	.
=25	=25	=25	=25	=25	=25
1E	1r	1G	1c	1g]	1r
1D	2r	1A	[1d	[1f	[1dd
.	2D	.	.	.	.
=26	=26	=26	=26	=26	=26
1BB-y	2F	1B-y	1d]	2f]	1dd]
.	2G	.	.	4e	.
.	.	.	.	4d	.
2.C	2.E	1G	1r	1e	1cc
4BB-y	4F	.	.	.	.
=27	=27	=27	=27	=27	=27
4GG	1G	0r	1r	1d	1b-y
4AA	.	.	.	.	.
4BB-y	.	.	.	.	.
4C	.	.	.	.	.
1D	1F	.	[1d	2.f	2.a
.	.	.	.	4e	4g
=28	=28	=28	=28	=28	=28
0r	0r	0r	2d]	4d	2f
.	.	.	.	4c	.
.	.	.	2c	2.e	2.g
.	.	.	1B-y	.	.
.	.	.	.	4d	4f
.	.	.	.	[2d	4e
.	.	.	.	.	4d
=29	=29	=29	=29	=29	=29
1r	1r	2r	1A	2d]	2e
.	.	2A	.	2c#i	2e
2r	[1G	2B-y	1r	1d	[1d
[2GG	.	2G	.	.	.
=30	=30	=30	=30	=30	=30
4GG]	1G]	1B-y	0d	0r	1d]
4AA	.	.	.	.	.
4BB-y	.	.	.	.	.
4C	.	.	.	.	.
2D	1F	2A	.	.	1r
2BB-y	.	2B-y	.	.	.
=31	=31	=31	=31	=31	=31
2.C	1E	1G	1c	0g	0r
4BB-y	.	.	.	.	.
4GG	1D	[1d	1B-y	.	.
4AA	.	.	.	.	.
4BB-y	.	.	.	.	.
4C	.	.	.	.	.
=32	=32	=32	=32	=32	=32
2D	2r	1d]	2A	1f	0r
2BB-y	2D	.	2B-y	.	.
1C	1E	1c	2.G	1e	.
.	.	.	4A	.	.
=33	=33	=33	=33	=33	=33
1GG	1G	1B-y	4B-y	1d	0r
.	.	.	4c	.	.
.	.	.	1d	.	.
[1D	[1F	2.A	.	2.f	.
.	.	.	4c	.	.
.	.	4G	4B-y	4e	.
=34	=34	=34	=34	=34	=34
2D]	2F]	2F	2A	4d	0r
.	.	.	.	4c	.
2C	2E	2.G	2c	2.e	.
1BB-y	2F	.	2d	.	.
.	.	4F	.	4d	.
.	2G	4E	2B-y	[2d	.
.	.	4D	.	.	.
=35	=35	=35	=35	=35	=35
1AA	1.A	2E	4c	2d]	1r
.	.	.	4B-y	.	.
.	.	2E	4A	2c#i	.
.	.	.	4G	.	.
1D	.	1D	2F	1d	2r
.	2F	.	2A	.	[2d
=36	=36	=36	=36	=36	=36
0r	2G	0r	2B-y	1r	2d]
.	2E	.	2c	.	1g
.	1D	.	1A	2r	.
.	.	.	.	[2d	2f
=37	=37	=37	=37	=37	=37
1r	1GG	0r	2r	2d]	1b-y
.	.	.	2G	1g	.
2r	1r	.	[1d	.	1a
[2D	.	.	.	2f	.
=38	=38	=38	=38	=38	=38
2D]	1r	0r	2d]	1b-y	2r
1G	.	.	2B-y	.	2d
.	2r	.	2c	1a	2e
2F	[2D	.	[2d	.	[2f
=39	=39	=39	=39	=39	=39
1B-y	2D]	1r	2d]	2f	2f]
.	1G	.	2B-y	2g	2d
1A	.	2r	2c	1a	2e
.	2F	[2D	[2d	.	[2f
=40	=40	=40	=40	=40	=40
1r	1B-y	2D]	2d]	2f	2f]
.	.	1d	2G	2g	4e
.	.	.	.	.	4d
1AA	2.A	.	2.c	1a	1e
.	.	2c	.	.	.
.	4G	.	4B-y	.	.
=41	=41	=41	=41	=41	=41
1.D	0F	1f	1A	2r	4d
.	.	.	.	.	4e
.	.	.	.	2d	4f
.	.	.	.	.	4g
.	.	1d	1r	2f	2a
2BB-y	.	.	.	2f	[2b-y
=42	=42	=42	=42	=42	=42
1E-i	1r	2B-y	0r	1g	2b-]
.	.	2c	.	.	4a
.	.	.	.	.	4g
1D	1F	[1d	.	2f	2b-y
.	.	.	.	[2f	[2a
=43	=43	=43	=43	=43	=43
2BB-y	2D	2d]	0r	2f]	4a]
.	.	.	.	.	4g
2C	2E	4c	.	2e	1g
.	.	4B-y	.	.	.
1D	2.F	2A	.	2.d	.
.	.	[2B-y	.	.	2f
.	4E	.	.	4c	.
=44	=44	=44	=44	=44	=44
1GG	2D	4B-]	1d	1B-y	1g
.	.	4A	.	.	.
.	2BB-y	1G	.	.	.
1r	2C	.	2c	1r	1r
.	2D	2F#i	2A	.	.
=45	=45	=45	=45	=45	=45
2r	1GG	1G	1B-y	0r	0r
2G	.	.	.	.	.
2F	1D	1r	2A	.	.
2D	.	.	[2B-y	.	.
=46	=46	=46	=46	=46	=46
1E	2r	1r	2B-]	0r	0r
.	2G	.	4A	.	.
.	.	.	4G	.	.
2.D	2F	2r	2B-y	.	.
.	2D	2d	[2A	.	.
4C	.	.	.	.	.
=47	=47	=47	=47	=47	=47
2AA	1E	2c	4A]	0r	1r
.	.	.	4G	.	.
2C	.	2A	2E	.	.
2BB-y	1D	1B-y	2F	.	2r
2GG	.	.	[2G	.	2dd
=48	=48	=48	=48	=48	=48
1AA	0r	1A	2G]	1r	2cc
.	.	.	2F#i	.	2a
1GG	.	1d	1G	2r	1b-y
.	.	.	.	2g	.
=49	=49	=49	=49	=49	=49
0r	0r	2D	1r	2f	2a
.	.	2.d	.	2d	1b-y
.	.	.	1g	1e	.
.	.	4B-y	.	.	.
.	.	2c	.	.	4a
.	.	.	.	.	4g
=50	=50	=50	=50	=50	=50
0r	2r	1d	2f	2.d	2b-y
.	1D	.	2d	.	2.a
.	.	.	.	4c	.
.	.	1r	1e	2A	.
.	.	.	.	.	4g
.	2C	.	.	2c	2e
=51	=51	=51	=51	=51	=51
0r	2D	1r	2d	2B-y	2f
.	2E	.	2c	2G	1g
.	1D	2r	2d	1A	.
.	.	2A	2d	.	2f#i
=52	=52	=52	=52	=52	=52
1r	0GG	1B-y	0d	0G	0g
1D	.	1B-y	.	.	.
=53	=53	=53	=53	=53	=53
1F	0r	1A	2r	1r	0r
.	.	.	2A	.	.
1E	.	2r	1c	1e	.
.	.	2G	.	.	.
=54	=54	=54	=54	=54	=54
1D	0r	1.d	1B-y	1f	1r
1D	.	.	1A	1f	1a
.	.	2c	.	.	.
=55	=55	=55	=55	=55	=55
1.G	0r	2.B-y	2r	1d	1b-y
.	.	.	2G	.	.
.	.	4c	.	.	.
.	.	2d	2B-y	1r	1b-y
2G	.	[2e-i	2G	.	.
=56	=56	=56	=56	=56	=56
1F	0r	4e-]	2A	1r	1a
.	.	4d	.	.	.
.	.	1d	2F	.	.
1E	.	.	1G	1e	1r
.	.	2c#i	.	.	.
=57	=57	=57	=57	=57	=57
0D	2r	0d	0A	1f	1r
.	2D	.	.	.	.
.	1F	.	.	1f	1a
=58	=58	=58	=58	=58	=58
0r	1G	1r	2r	1d	1b-y
.	.	.	2d	.	.
.	1D	1A	1f	2r	1a
.	.	.	.	2d	.
=59	=59	=59	=59	=59	=59
0r	2r	1c	1e	2e	1g
.	2C	.	.	2.g	.
.	2G	1B-y	1d	.	2r
.	.	.	.	4f	.
.	2G	.	.	4d	2g
.	.	.	.	4e	.
=60	=60	=60	=60	=60	=60
0r	1F	1A	0r	2f	2a
.	.	.	.	2d	2f
.	1E	2r	.	2e	2.g
.	.	2G	.	2g	.
.	.	.	.	.	4a
=61	=61	=61	=61	=61	=61
0r	1D	1.d	2r	1f	2b-y
.	.	.	2A	.	2.a
.	2r	.	[1f	1r	.
.	.	.	.	.	4f
.	2BB-y	2d	.	.	[2b-y
=62	=62	=62	=62	=62	=62
0r	2.F	1c	2f]	0r	4b-]
.	.	.	.	.	4a
.	.	.	2f	.	1a
.	4F	.	.	.	.
.	2G	1B-y	2d	.	.
.	2G	.	2e	.	2g
=63	=63	=63	=63	=63	=63
[0D	1F	[0A	1f	1r	0a
.	1r	.	[1d	[1f	.
=64	=64	=64	=64	=64	=64
1D]	1.F	0A]	1d]	2f]	1r
.	.	.	.	2f	.
1D	.	.	1d	1f	[1a
.	2F	.	.	.	.
=65	=65	=65	=65	=65	=65
0D	1F	1r	0A	1d	1a]
.	1D	1F	.	1d	1a
=66	=66	=66	=66	=66	=66
1GG	1D	1G	1d	1.g	1b-y
1GG	[1G	1B-y	1d	.	1g
.	.	.	.	2f	.
=67	=67	=67	=67	=67	=67
1.C	2G]	1G	1.c	[0e	1g
.	2F	.	.	.	.
.	1E	1G	.	.	[1cc
2BB-y	.	.	2c	.	.
=68	=68	=68	=68	=68	=68
0AA	1r	1.A	[0c	0e]	2cc]
.	.	.	.	.	2b-y
.	1E	.	.	.	[1a
.	.	2A	.	.	.
=69	=69	=69	=69	=69	=69
1r	1F	1A	0c]	0r	0a]
1AA	1E	2r	.	.	.
.	.	2A	.	.	.
=70	=70	=70	=70	=70	=70
1.D	2.F	2.B-y	0r	0r	0r
.	4E	4A	.	.	.
.	2F	2B-y	.	.	.
2C	[2E	[2A	.	.	.
=71	=71	=71	=71	=71	=71
1BB-y	4E]	4A]	1r	1r	1r
.	4D	4G	.	.	.
.	1D	1G	.	.	.
1AA	.	.	1A	1c	1a
.	2C	2F#i	.	.	.
=72	=72	=72	=72	=72	=72
1GG	1D	1G	1.d	2.B-y	2.b-y
.	.	.	.	4c	4a
1r	1r	1r	.	2d	2b-y
.	.	.	2c	2e-i	[2a
=73	=73	=73	=73	=73	=73
0r	1r	0r	1B-y	0d	4a]
.	.	.	.	.	4g
.	.	.	.	.	1g
.	1D	.	1A	.	.
.	.	.	.	.	2f#i
=74	=74	=74	=74	=74	=74
1r	1G	0r	2G	2r	2.g
.	.	.	2G	2d	.
.	.	.	.	.	8fL
.	.	.	.	.	8eJ
1GG	1G	.	1B-y	1g	1d
=75	=75	=75	=75	=75	=75
1C	1E	1G	1c	1g	1e
1C	1E	1c	2G	1e	2r
.	.	.	2G	.	2g
=76	=76	=76	=76	=76	=76
1AA	0A	1c	4A	1e	1cc
.	.	.	4G	.	.
.	.	.	4A	.	.
.	.	.	4B-y	.	.
1AA	.	1A	4c	[1a	1cc
.	.	.	4d	.	.
.	.	.	4e	.	.
.	.	.	4c	.	.
=77	=77	=77	=77	=77	=77
0D	1F	1A	2.d	1a]	1a
.	.	.	8cL	.	.
.	.	.	8B-yJ	.	.
.	1F	[1d	1A	1f	1a
=78	=78	=78	=78	=78	=78
1BB-y	1D	1d]	2.B-y	1f	0dd
.	.	.	8AL	.	.
.	.	.	8GJ	.	.
1BB-y	1D	1B-y	1F	1d	.
=79	=79	=79	=79	=79	=79
1GG	0G	1B-y	1G	1d	1b-y
1GG	.	1G	1d	[1g	1b-y
=80	=80	=80	=80	=80	=80
0C	[0E	1G	2e	1g]	1g
.	.	.	1c	.	.
.	.	[1c	.	1e	1g
.	.	.	4B-y	.	.
.	.	.	4A	.	.
=81	=81	=81	=81	=81	=81
1C	1E]	1c]	1.G	[0g	0cc
1C	1E	1c	.	.	.
.	.	.	2A	.	.
=82	=82	=82	=82	=82	=82
2.GG	[0D	2.d	2.B-y	1g]	0b-y
4AA	.	4c	4c	.	.
2.BB-y	.	2.B-y	4d	[1f	.
.	.	.	4e-i	.	.
.	.	.	[2d	.	.
4C	.	8AL	.	.	.
.	.	8GJ	.	.	.
=83	=83	=83	=83	=83	=83
1D	0D]	1F	4d]	1f]	1a
.	.	.	4c	.	.
.	.	.	2A	.	.
1GG	.	1G	1B-y	1d	[1g
=84	=84	=84	=84	=84	=84
0D	1r	0A	2A	0d	2g]
.	.	.	2.d	.	4f#i
.	.	.	.	.	4e
.	1D	.	.	.	1f#i
.	.	.	4c	.	.
.	.	.	2A	.	.
=85	=85	=85	=85	=85	=85
1r	1G	1G	2B-y	2r	2.g
.	.	.	2G	2d	.
.	.	.	.	.	8fL
.	.	.	.	.	8eJ
1GG	1G	1r	1B-y	1g	1d
=86	=86	=86	=86	=86	=86
1C	1E	1G	1c	1g	1e
1C	1E	1c	2G	1e	2r
.	.	.	2G	.	2g
=87	=87	=87	=87	=87	=87
1AA	0A	1c	4A	1e	1cc
.	.	.	4G	.	.
.	.	.	4A	.	.
.	.	.	4B-y	.	.
1AA	.	1A	4c	[1a	1cc
.	.	.	4d	.	.
.	.	.	4e	.	.
.	.	.	4c	.	.
=88	=88	=88	=88	=88	=88
0D	1F	1A	2.d	1a]	1a
.	.	.	8cL	.	.
.	.	.	8B-yJ	.	.
.	1F	[1d	1A	1f	1a
=89	=89	=89	=89	=89	=89
1BB-y	1D	1d]	2.B-y	1f	0dd
.	.	.	8AL	.	.
.	.	.	8GJ	.	.
1BB-y	1D	1B-y	1F	1d	.
=90	=90	=90	=90	=90	=90
1GG	0G	1B-y	1G	1d	1b-y
1GG	.	1G	1d	[1g	1b-y
=91	=91	=91	=91	=91	=91
0C	[0E	1G	2e	1g]	1g
.	.	.	1c	.	.
.	.	[1c	.	1e	1g
.	.	.	4B-y	.	.
.	.	.	4A	.	.
=92	=92	=92	=92	=92	=92
1C	1E]	1c]	1.G	[0g	0cc
1C	1E	1c	.	.	.
.	.	.	2A	.	.
=93	=93	=93	=93	=93	=93
2.GG	[0D	2.d	2.B-y	1g]	0b-y
4AA	.	4c	4c	.	.
2.BB-y	.	2.B-y	4d	[1f	.
.	.	.	4e-i	.	.
.	.	.	[2d	.	.
4C	.	8AL	.	.	.
.	.	8GJ	.	.	.
=94	=94	=94	=94	=94	=94
1D	0D]	1F	4d]	1f]	1a
.	.	.	4c	.	.
.	.	.	2A	.	.
1GG	.	1G	1B-y	1d	[1g
=95	=95	=95	=95	=95	=95
0D	1r	0A	2A	[0d	2g]
.	.	.	2.d	.	4f#i
.	.	.	.	.	4e
.	[1D	.	.	.	1f#i
.	.	.	4c	.	.
.	.	.	2A	.	.
=96	=96	=96	=96	=96	=96
1GG	1D]	[0Gl	1B-y	1d]	[0gl
[1C	1E	.	2G	1c	.
.	.	.	[2c	.	.
=97	=97	=97	=97	=97	=97
1C]	1C	0G_	4c]	1e	0g_
.	.	.	4B-y	.	.
.	.	.	4G	.	.
.	.	.	4A	.	.
1BB-y	1D	.	1B-y	1d	.
=98	=98	=98	=98	=98	=98
0C	1E	0G_	2G	2.c	0g_
.	.	.	1c	.	.
.	.	.	.	4d	.
.	1C	.	.	1e	.
.	.	.	4B-y	.	.
.	.	.	4A	.	.
=99	=99	=99	=99	=99	=99
00GGl	00Dl	00G]	00B-yl	00dl	00g]
==	==	==	==	==	==
*-	*-	*-	*-	*-	*-
!!!system-decoration: [*]
!!!RDF**kern: i = editorial accidental
!!!RDF**kern: l = terminal long
!!!ENC: Benjamin Ory
!!!END: 2021/2/1
!!!EED: Benjamin Ory
!!!EEV: 2021/05/12
!!!YEC: Copyright 2021 Benjamin Ory, All Rights Reserved
!!!ONB: Translated from MusicXML on 2021/05/12
